assets/sonr-icons/funds-withdraw.svg

<svg xmlns="http://www.w3.org/2000/svg" width="24" height="24" fill="none"><path fill="currentColor" d="M6 7h12a1 1 0 0 1 1 1v10a3 3 0 0 1-3 3H8a3 3 0 0 1-3-3V8a1 1 0 0 1 1-1m3.293 9.707 2 2a1 1 0 0 0 1.414 0l2-2a1 1 0 1 0-1.414-1.415l-.293.293V9.999a1 1 0 0 0-2 0v5.586l-.293-.293a1.001 1.001 0 0 0-1.414 1.415M3 4a1 1 0 0 1 1-1h16a1 1 0 0 1 0 2H4a1 1 0 0 1-1-1"/></svg>

<svg xmlns="http://www.w3.org/2000/svg" width="24" height="24" fill="none" viewBox="0 0 24 24"><path fill="#000" d="M6 7H18C18.552 7 19 7.448 19 8V18C19 19.657 17.657 21 16 21H8C6.343 21 5 19.657 5 18V8C5 7.448 5.448 7 6 7ZM9.293 16.707L11.293 18.707C11.684 19.098 12.317 19.098 12.707 18.707L14.707 16.707C15.098 16.316 15.098 15.683 14.707 15.292C14.316 14.901 13.683 14.901 13.293 15.292L13 15.585V9.999C13 9.447 12.552 8.999 12 8.999C11.448 8.999 11 9.447 11 9.999V15.585L10.707 15.292C10.316 14.901 9.683 14.901 9.293 15.292C8.903 15.683 8.902 16.316 9.293 16.707ZM3 4C3 3.448 3.448 3 4 3H20C20.552 3 21 3.448 21 4C21 4.552 20.552 5 20 5H4C3.448 5 3 4.552 3 4Z"/></svg>
